TV/Source/Z24 - Original.svg

<svg height="224pt" viewBox="0 0 269 224" width="269pt" xmlns="http://www.w3.org/2000/svg"><path d="m0 54.519142h269v169.480858h-269z" fill="#eb090a" transform="matrix(1 0 0 1.3216847 .0003 -72.057366)"/><path d="m0-.0002462h269.00024v107.3302462c0 7.79386-66.61235 14.31077-133.86174 14.40975-67.24939.099-135.1385-6.56641-135.1385-14.40975 0-7.843332 0-107.3302462 0-107.3302462z" fill="#ef3131"/><g fill="#fff"><path d="m121.99 68.54c8.2-1.08 17.29.07 23.69 5.73 7.24 6.1 9.71 16.18 8.76 25.3-.46 7.8-4.35 14.8-9.06 20.82-5 6.18-10.67 11.75025-16.18 17.47025h27.70975v17.8095h-56.6595l-.00025-12.37975c6.98-7.34 13.97-14.67 21.12-21.83 4.74-5.02 9.77-10.15 12.34-16.67 2.04-5.53.69-13.76-5.79-15.53-9.03-2.19-18.20025 2.02-25.07025 7.67v-20.72c5.3-4.4 12.39025-6.74 19.14025-7.67z"/><path d="m200.19976 69.719752c5.7.05 11.39025 0 17.09025 0v51.400498h10.53975l.00024 17.11975-10.53999.0102v17.58975h-19.71v-17.58975l-34.20975-.00025v-13.48368l13.72974-22.87632 13.13 10.91-5.31 8.3203h15.27976v-51.400548z"/><path d="m44.490001 105.83 51.699999-.16-23.68 37.7 20.799753-.06v12.37l-51.509753-.07 23.27-36.92-20.579999-.03z"/></g></svg>

<?xml version="1.0" encoding="UTF-8" standalone="no"?>
<svg
   xmlns:dc="http://purl.org/dc/elements/1.1/"
   xmlns:cc="http://creativecommons.org/ns#"
   xmlns:rdf="http://www.w3.org/1999/02/22-rdf-syntax-ns#"
   xmlns:svg="http://www.w3.org/2000/svg"
   xmlns="http://www.w3.org/2000/svg"
   xmlns:sodipodi="http://sodipodi.sourceforge.net/DTD/sodipodi-0.dtd"
   xmlns:inkscape="http://www.inkscape.org/namespaces/inkscape"
   width="269pt"
   height="224pt"
   viewBox="0 0 269 224"
   version="1.1"
   id="svg17"
   sodipodi:docname="Z24 - Original.svg"
   inkscape:version="0.92.0 r15299">
  <metadata
     id="metadata23">
    <rdf:RDF>
      <cc:Work
         rdf:about="">
        <dc:format>image/svg+xml</dc:format>
        <dc:type
           rdf:resource="http://purl.org/dc/dcmitype/StillImage" />
        <dc:title></dc:title>
      </cc:Work>
    </rdf:RDF>
  </metadata>
  <defs
     id="defs21" />
  <sodipodi:namedview
     pagecolor="#ffffff"
     bordercolor="#666666"
     borderopacity="1"
     objecttolerance="10"
     gridtolerance="10"
     guidetolerance="10"
     inkscape:pageopacity="0"
     inkscape:pageshadow="2"
     inkscape:window-width="1920"
     inkscape:window-height="1017"
     id="namedview19"
     showgrid="false"
     inkscape:zoom="1.5803571"
     inkscape:cx="58.721456"
     inkscape:cy="222.91296"
     inkscape:window-x="-8"
     inkscape:window-y="-8"
     inkscape:window-maximized="1"
     inkscape:current-layer="svg17" />
  <g
     transform="matrix(1,0,0,1.3216847,3e-4,-72.057366)"
     id="#eb090aff-5">
    <path
       d="M 0,54.519142 H 269 V 224 H 0 Z"
       id="path14-2"
       inkscape:connector-curvature="0"
       style="opacity:1;fill:#eb090a"
       sodipodi:nodetypes="ccccc" />
  </g>
  <path
     style="opacity:1;fill:#ef3131;fill-opacity:1;stroke:none;stroke-width:1.18133533;stroke-opacity:1"
     d="m 0,-2.4620039e-4 h 269.00024 c 0,0 0,99.53639420039 0,107.33024620039 0,7.79386 -66.61235,14.31077 -133.86174,14.40975 C 67.88911,121.83875 0,115.17334 0,107.33 0,99.486668 0,-2.4620039e-4 0,-2.4620039e-4 Z"
     id="rect4500"
     inkscape:connector-curvature="0"
     sodipodi:nodetypes="cczzzc" />
  <g
     id="#ffffffff">
    <path
       d="m 121.99,68.54 c 8.2,-1.08 17.29,0.07 23.69,5.73 7.24,6.1 9.71,16.18 8.76,25.3 -0.46,7.8 -4.35,14.8 -9.06,20.82 -5,6.18 -10.67,11.75025 -16.18,17.47025 h 27.70975 v 17.8095 h -56.6595 L 100.25,143.29 c 6.98,-7.34 13.97,-14.67 21.12,-21.83 4.74,-5.02 9.77,-10.15 12.34,-16.67 2.04,-5.53 0.69,-13.76 -5.79,-15.53 -9.03,-2.19 -18.20025,2.02 -25.07025,7.67 V 76.21 c 5.3,-4.4 12.39025,-6.74 19.14025,-7.67 z"
       id="path5"
       inkscape:connector-curvature="0"
       style="opacity:1;fill:#ffffff"
       sodipodi:nodetypes="ccccccccccccccc" />
    <path
       d="m 200.19976,69.719752 c 5.7,0.05 11.39025,0 17.09025,0 v 51.400498 h 10.53975 l 2.4e-4,17.11975 -10.53999,0.0102 v 17.58975 h -19.71 V 138.2502 l -34.20975,-2.5e-4 V 124.76627 L 177.1,101.88995 l 13.13,10.91 -5.31,8.3203 h 15.27976 V 69.719702 Z"
       id="path7"
       inkscape:connector-curvature="0"
       style="opacity:1;fill:#ffffff"
       sodipodi:nodetypes="ccccccccccccccccc" />
    <path
       d="M 44.490001,105.83 96.19,105.67 l -23.68,37.7 20.799753,-0.06 v 12.37 L 41.8,155.61 65.07,118.69 44.490001,118.66 Z"
       id="path9"
       inkscape:connector-curvature="0"
       style="opacity:1;fill:#ffffff"
       sodipodi:nodetypes="ccccccccc" />
  </g>
</svg>
